img/icon/main_48.svg

<svg height="48" width="48" xmlns="http://www.w3.org/2000/svg" xmlns:xlink="http://www.w3.org/1999/xlink">
  <linearGradient id="a" gradientTransform="matrix(2.0735682 0 0 2.0663791 -1.308364 -4.661268)" gradientUnits="userSpaceOnUse" x1="17.51009" x2="19.334143" xlink:href="#d" y1="8.605084" y2="6.180649"/>
  <linearGradient id="b">
    <stop offset="0" stop-color="#d1e6fd"/>
    <stop offset="1" stop-color="#8894d9"/>
  </linearGradient>
  <linearGradient id="c" gradientTransform="matrix(2.5136157 0 0 2.1365735 -8.392156 -2.610842)" gradientUnits="userSpaceOnUse" x1="4" x2="20" xlink:href="#b" y1="3" y2="22"/>
  <linearGradient id="d">
    <stop offset="0" stop-color="#fdffff"/>
    <stop offset="1" stop-color="#cfcfff"/>
  </linearGradient>
  <linearGradient id="e" gradientTransform="matrix(2.5136157 0 0 2.1365735 -8.392156 -2.610842)" gradientUnits="userSpaceOnUse" x1="5" x2="20" xlink:href="#d" y1="3" y2="21"/>
  <linearGradient id="f" gradientTransform="matrix(2.5136157 0 0 2.1365735 -8.392156 -2.610842)" gradientUnits="userSpaceOnUse" x1="12.391796" x2="20.721073" xlink:href="#b" y1="1.537378" y2="7.774524"/>
  <filter id="g">
    <feGaussianBlur stdDeviation=".93052244"/>
  </filter>
  <filter id="h" height="1.256196" width="1.22573" x="-.112865" y="-.128098">
    <feGaussianBlur stdDeviation=".66063225"/>
  </filter>
  <g fill-rule="evenodd">
    <path d="m3.6039597 41.662306h38.3960403v-24.978865h4.335423v29.710332h-42.7314633z" fill-opacity=".488889" filter="url(#g)"/>
    <path d="m.6623057.5998055h25.3960403c6.395324-.0375335 7.956197 9.9467725 6.897196 14.5836355h11.438227v29.210332h-43.7314633z" style="stroke-width:1.2;stroke-linecap:round;stroke-linejoin:round;stroke-dashoffset:21.443998;fill:url(#e);stroke:url(#c)"/>
    <path d="m22.421875 22.453125 8.359375-11.453125h-23.8125l.0625-4h31.78125v5l-15.203125 11.640625-8.609375 10.359375h23.8125l-.0625 4h-32.78125v-5z" fill="#f00" fill-opacity=".822222"/>
    <g transform="matrix(1 0 0 1.1111111 0 -1.555556)">
      <path d="m6.03125 5h3.4375v9h-3.4375z" fill-opacity=".327778"/>
      <path d="m6.03125 5h1.96875v9h-1.96875z" fill-opacity=".716667"/>
    </g>
    <g transform="matrix(-1 0 0 1.1111111 45.09375 25.444444)">
      <path d="m6.03125 5h3.4375v9h-3.4375z" fill-opacity=".327778"/>
      <path d="m6.03125 5h1.96875v9h-1.96875z" fill-opacity=".716667"/>
    </g>
  </g>
  <path d="m31.152096 4.6623055c1.847904 4.1187165 2.019449 6.8217725 1.240946 11.1773855h11.606958" style="fill:none;stroke:#000;stroke-width:1.2;stroke-linecap:round;stroke-dashoffset:21.443998;stroke-opacity:.694444;filter:url(#h)"/>
  <path d="m26.058346.5998055c4.941654.4001945 6.941654 7.4001945 6.897196 14.7711355h11.438227" fill="none" stroke="url(#f)" stroke-dashoffset="21.443998" stroke-linecap="round" stroke-width="1.2"/>
  <path d="m27.273191.0722015c4.726809 1.9277985 5.726809 6.9277985 5.91249 14.9511885h11.80851c-1.994191-6.02339-9.994191-13.02339-17.721-14.9511885z" fill="url(#a)" fill-rule="evenodd"/>
  <path d="m.26884082 18.926003h7.54097888l.722519 20.668616h-7.54097885z" style="fill:#49b7ff;fill-opacity:.65;fill-rule:evenodd;stroke:#49b7ff;stroke-width:1.366556;stroke-linecap:square" transform="matrix(1 0 .6367206 .7710946 0 0)"/>
</svg>

<?xml version="1.0" encoding="UTF-8" standalone="no"?>
<!-- Created with Inkscape (http://www.inkscape.org/) -->

<svg
   xmlns:dc="http://purl.org/dc/elements/1.1/"
   xmlns:cc="http://creativecommons.org/ns#"
   xmlns:rdf="http://www.w3.org/1999/02/22-rdf-syntax-ns#"
   xmlns:svg="http://www.w3.org/2000/svg"
   xmlns="http://www.w3.org/2000/svg"
   xmlns:xlink="http://www.w3.org/1999/xlink"
   xmlns:sodipodi="http://sodipodi.sourceforge.net/DTD/sodipodi-0.dtd"
   xmlns:inkscape="http://www.inkscape.org/namespaces/inkscape"
   width="48px"
   height="48px"
   id="svg2494"
   sodipodi:version="0.32"
   inkscape:version="0.48.2 r9819"
   sodipodi:docname="icon_main.svg"
   inkscape:output_extension="org.inkscape.output.svg.inkscape"
   inkscape:export-filename="D:\Projects\rezonator 1.5\img\svg\main_icon_48.png"
   inkscape:export-xdpi="90"
   inkscape:export-ydpi="90"
   version="1.1">
  <defs
     id="defs2496">
    <linearGradient
       inkscape:collect="always"
       xlink:href="#linearGradient3157"
       id="linearGradient3949"
       x1="17.51009"
       y1="8.6050844"
       x2="19.334143"
       y2="6.1806488"
       gradientUnits="userSpaceOnUse"
       gradientTransform="matrix(2.0735682,0,0,2.0663791,-1.3083641,-4.661268)" />
    <linearGradient
       id="linearGradient3165">
      <stop
         style="stop-color:#d1e6fd;stop-opacity:1;"
         offset="0"
         id="stop3167" />
      <stop
         style="stop-color:#8894d9;stop-opacity:1;"
         offset="1"
         id="stop3169" />
    </linearGradient>
    <linearGradient
       inkscape:collect="always"
       xlink:href="#linearGradient3165"
       id="linearGradient3171"
       x1="4"
       y1="3"
       x2="20"
       y2="22"
       gradientUnits="userSpaceOnUse"
       gradientTransform="matrix(2.5136157,0,0,2.1365735,-8.3921557,-2.6108417)" />
    <linearGradient
       id="linearGradient3157">
      <stop
         style="stop-color:#fdffff;stop-opacity:1;"
         offset="0"
         id="stop3159" />
      <stop
         style="stop-color:#cfcfff;stop-opacity:1;"
         offset="1"
         id="stop3161" />
    </linearGradient>
    <linearGradient
       inkscape:collect="always"
       xlink:href="#linearGradient3157"
       id="linearGradient3163"
       x1="5"
       y1="3"
       x2="20"
       y2="21"
       gradientUnits="userSpaceOnUse"
       gradientTransform="matrix(2.5136157,0,0,2.1365735,-8.3921557,-2.6108417)" />
    <inkscape:perspective
       sodipodi:type="inkscape:persp3d"
       inkscape:vp_x="0 : 24 : 1"
       inkscape:vp_y="0 : 1000 : 0"
       inkscape:vp_z="48 : 24 : 1"
       inkscape:persp3d-origin="24 : 16 : 1"
       id="perspective2502" />
    <inkscape:perspective
       id="perspective2513"
       inkscape:persp3d-origin="372.04724 : 350.78739 : 1"
       inkscape:vp_z="744.09448 : 526.18109 : 1"
       inkscape:vp_y="0 : 1000 : 0"
       inkscape:vp_x="0 : 526.18109 : 1"
       sodipodi:type="inkscape:persp3d" />
    <linearGradient
       inkscape:collect="always"
       xlink:href="#linearGradient3165"
       id="linearGradient3304"
       gradientUnits="userSpaceOnUse"
       gradientTransform="matrix(2.5136157,0,0,2.1365735,-8.3921557,-2.6108417)"
       x1="12.391796"
       y1="1.5373778"
       x2="20.721073"
       y2="7.7745237" />
    <filter
       inkscape:collect="always"
       id="filter3312">
      <feGaussianBlur
         inkscape:collect="always"
         stdDeviation="0.93052244"
         id="feGaussianBlur3314" />
    </filter>
    <filter
       inkscape:collect="always"
       id="filter3351"
       x="-0.11286505"
       width="1.2257301"
       y="-0.12809792"
       height="1.2561958">
      <feGaussianBlur
         inkscape:collect="always"
         stdDeviation="0.66063225"
         id="feGaussianBlur3353" />
    </filter>
  </defs>
  <sodipodi:namedview
     id="base"
     pagecolor="#ffffff"
     bordercolor="#666666"
     borderopacity="1.0"
     inkscape:pageopacity="0.0"
     inkscape:pageshadow="2"
     inkscape:zoom="16"
     inkscape:cx="43.413656"
     inkscape:cy="20.412501"
     inkscape:current-layer="layer1"
     showgrid="true"
     inkscape:grid-bbox="true"
     inkscape:document-units="px"
     inkscape:window-width="1916"
     inkscape:window-height="1144"
     inkscape:window-x="-4"
     inkscape:window-y="-4"
     inkscape:window-maximized="0">
    <inkscape:grid
       type="xygrid"
       id="grid2504" />
  </sodipodi:namedview>
  <metadata
     id="metadata2499">
    <rdf:RDF>
      <cc:Work
         rdf:about="">
        <dc:format>image/svg+xml</dc:format>
        <dc:type
           rdf:resource="http://purl.org/dc/dcmitype/StillImage" />
        <dc:title></dc:title>
      </cc:Work>
    </rdf:RDF>
  </metadata>
  <g
     id="layer1"
     inkscape:label="Layer 1"
     inkscape:groupmode="layer">
    <path
       sodipodi:nodetypes="ccccccc"
       id="path3306"
       d="m 3.6039597,41.662306 38.3960403,0 0,-24.978865 4.335423,0 0,29.710332 -42.7314633,0 z"
       style="fill:#000000;fill-opacity:0.48888891;fill-rule:evenodd;stroke:none;filter:url(#filter3312)"
       inkscape:connector-curvature="0" />
    <path
       style="fill:url(#linearGradient3163);fill-opacity:1;fill-rule:evenodd;stroke:url(#linearGradient3171);stroke-width:1.20000005;stroke-linecap:round;stroke-linejoin:round;stroke-miterlimit:4;stroke-opacity:1;stroke-dasharray:none;stroke-dashoffset:21.44399795"
       d="m 0.6623057,0.5998055 25.3960403,0 C 32.45367,0.562272 34.014543,10.546578 32.955542,15.183441 l 11.438227,0 0,29.210332 -43.7314633,0 z"
       id="rect2385"
       sodipodi:nodetypes="ccccccc"
       inkscape:connector-curvature="0" />
    <path
       id="path3330"
       style="fill:#ff0000;fill-opacity:0.82222224;fill-rule:evenodd;stroke:none"
       d="M 22.421875,22.453125 30.78125,11 6.96875,11 7.03125,7 38.8125,7 l 0,5 L 23.609375,23.640625 15,34 38.8125,34 38.75,38 5.96875,38 l 0,-5 z"
       sodipodi:nodetypes="ccccccccccccc"
       inkscape:connector-curvature="0" />
    <g
       id="g3320"
       transform="matrix(1,0,0,1.1111111,0,-1.5555556)">
      <rect
         y="5"
         x="6.03125"
         height="9"
         width="3.4375"
         id="rect3316"
         style="fill:#000000;fill-opacity:0.32777776;fill-rule:evenodd;stroke:none" />
      <rect
         style="fill:#000000;fill-opacity:0.71666721;fill-rule:evenodd;stroke:none"
         id="rect3318"
         width="1.96875"
         height="9"
         x="6.03125"
         y="5" />
    </g>
    <g
       id="g3324"
       transform="matrix(-1,0,0,1.1111111,45.09375,25.444444)">
      <rect
         style="fill:#000000;fill-opacity:0.32777776;fill-rule:evenodd;stroke:none"
         id="rect3326"
         width="3.4375"
         height="9"
         x="6.03125"
         y="5" />
      <rect
         y="5"
         x="6.03125"
         height="9"
         width="1.96875"
         id="rect3328"
         style="fill:#000000;fill-opacity:0.71666721;fill-rule:evenodd;stroke:none" />
    </g>
    <path
       style="fill:none;fill-opacity:1;fill-rule:evenodd;stroke:#000000;stroke-width:1.20000017000000000;stroke-linecap:round;stroke-linejoin:miter;stroke-miterlimit:4;stroke-dashoffset:21.44399795000000000;stroke-opacity:0.69444441999999995;filter:url(#filter3351)"
       d="M 31.152096,4.6623055 C 33,8.781022 33.171545,11.484078 32.393042,15.839691 C 32.393042,15.839691 44,15.839691 44,15.839691"
       id="path3341"
       sodipodi:nodetypes="ccc" />
    <path
       sodipodi:nodetypes="ccc"
       id="path2532"
       d="M 26.058346,0.5998055 C 31,1 33,8 32.955542,15.370941 l 11.438227,0"
       style="fill:none;stroke:url(#linearGradient3304);stroke-width:1.20000017;stroke-linecap:round;stroke-linejoin:miter;stroke-miterlimit:4;stroke-opacity:1;stroke-dashoffset:21.44399795"
       inkscape:connector-curvature="0" />
    <path
       style="fill:url(#linearGradient3949);fill-opacity:1;fill-rule:evenodd;stroke:none"
       d="M 27.273191,0.0722015 C 32,2 33,7 33.185681,15.02339 l 11.80851,0 C 43,9 35,2 27.273191,0.0722015 z"
       id="path3171"
       sodipodi:nodetypes="cccc"
       inkscape:connector-curvature="0" />
    <path
       transform="matrix(1,0,0.6367206,0.7710946,0,0)"
       style="fill:#49b7ff;fill-opacity:0.65;fill-rule:evenodd;stroke:#49b7ff;stroke-width:1.36655605;stroke-linecap:square;stroke-linejoin:miter;stroke-miterlimit:4;stroke-opacity:1;stroke-dashoffset:0"
       d="m 0.26884082,18.926003 7.54097888,0 0.722519,20.668616 -7.54097885,0 z"
       id="rect3355"
       inkscape:connector-curvature="0"
       sodipodi:nodetypes="ccccc" />
  </g>
</svg>
